src/assets/images/icons/networks/optimism.svg

<svg width="200" height="200" viewBox="0 0 200 200" fill="none" xmlns="http://www.w3.org/2000/svg">
<path d="M100 197.5C153.848 197.5 197.5 153.848 197.5 100C197.5 46.1522 153.848 2.5 100 2.5C46.1522 2.5 2.5 46.1522 2.5 100C2.5 153.848 46.1522 197.5 100 197.5Z" fill="#FF0420"/>
<path d="M71.5821 125.914C65.777 125.914 61.0204 124.548 57.3125 121.816C53.6538 119.035 51.8242 115.084 51.8242 109.961C51.8242 108.888 51.9461 107.57 52.1898 106.009C52.8246 102.497 53.7269 98.2767 54.8979 93.3496C58.2149 79.9336 66.7773 73.2256 80.5833 73.2256C84.34 73.2256 87.7062 73.8593 90.6824 75.1278C93.6581 76.3475 96 78.2015 97.7072 80.6897C99.4145 83.1287 100.269 86.0561 100.269 89.471C100.269 90.4953 100.147 91.7881 99.9024 93.3496C99.1707 97.6913 98.2927 101.912 97.268 106.009C95.5608 112.693 92.609 117.693 88.4135 121.011C84.2181 124.28 78.608 125.914 71.5821 125.914ZM72.6068 115.376C75.3393 115.376 77.6564 114.571 79.5591 112.961C81.5105 111.352 82.9009 108.888 83.7301 105.57C84.8519 100.984 85.706 96.9839 86.2914 93.569C86.4864 92.5442 86.5839 91.4956 86.5839 90.4221C86.5839 85.9825 84.2669 83.7629 79.6322 83.7629C76.8998 83.7629 74.5583 84.5678 72.6068 86.1775C70.7046 87.7882 69.3381 90.2515 68.5089 93.569C67.6309 96.8376 66.7524 100.838 65.8745 105.57C65.6795 106.546 65.582 107.57 65.582 108.643C65.582 113.132 67.9239 115.376 72.6068 115.376Z" fill="white"/>
<path d="M103.628 125.182C103.092 125.182 102.677 125.011 102.384 124.67C102.14 124.279 102.067 123.84 102.165 123.352L112.263 75.7861C112.361 75.2494 112.63 74.8106 113.068 74.4689C113.507 74.1276 113.971 73.9565 114.459 73.9565H133.924C139.34 73.9565 143.681 75.0788 146.95 77.3227C150.268 79.5672 151.926 82.8115 151.926 87.0557C151.926 88.2754 151.78 89.5439 151.487 90.8611C150.268 96.4712 147.804 100.618 144.097 103.302C140.437 105.985 135.412 107.326 129.021 107.326H119.143L115.776 123.352C115.678 123.889 115.41 124.328 114.971 124.67C114.532 125.011 114.069 125.182 113.581 125.182H103.628ZM129.534 97.2278C131.583 97.2278 133.363 96.6662 134.876 95.5445C136.437 94.4223 137.461 92.8126 137.949 90.7148C138.096 89.8851 138.169 89.1534 138.169 88.5191C138.169 87.1044 137.754 86.0309 136.925 85.2997C136.095 84.5187 134.681 84.1287 132.68 84.1287H123.899L121.118 97.2278H129.534Z" fill="white"/>
</svg>

<svg xmlns="http://www.w3.org/2000/svg" width="200" height="200" fill="none"><path fill="#FF0420" d="M100 197.5c53.848 0 97.5-43.652 97.5-97.5S153.848 2.5 100 2.5 2.5 46.152 2.5 100s43.652 97.5 97.5 97.5"/><path fill="#fff" d="M71.582 125.914q-8.708 0-14.27-4.098-5.487-4.171-5.488-11.855 0-1.61.366-3.952.952-5.268 2.708-12.66 4.977-20.123 25.685-20.123 5.635 0 10.1 1.902 4.463 1.83 7.024 5.562 2.562 3.659 2.562 8.781 0 1.536-.367 3.879a166 166 0 0 1-2.634 12.659q-2.56 10.026-8.855 15.002-6.293 4.903-16.83 4.903m1.025-10.538q4.099 0 6.952-2.415 2.927-2.414 4.171-7.391 1.683-6.879 2.561-12.001.293-1.537.293-3.147 0-6.66-6.952-6.66-4.098 0-7.025 2.415-2.854 2.416-4.098 7.392-1.317 4.903-2.635 12.001-.291 1.464-.292 3.073 0 6.733 7.025 6.733M103.628 125.182q-.804 0-1.244-.512-.366-.586-.219-1.318l10.098-47.566a2.1 2.1 0 0 1 .805-1.317q.659-.512 1.391-.512h19.465q8.123 0 13.026 3.366 4.976 3.367 4.976 9.733 0 1.83-.439 3.805-1.829 8.415-7.39 12.441-5.49 4.024-15.076 4.024h-9.878l-3.367 16.026a2.1 2.1 0 0 1-.805 1.318q-.658.512-1.39.512zm25.906-27.954q3.073 0 5.342-1.683 2.341-1.684 3.073-4.83.22-1.245.22-2.196 0-2.122-1.244-3.22-1.244-1.17-4.245-1.17h-8.781l-2.781 13.099z"/></svg>
